X: 1
T:Lochanside  "1998.3"
M:3/4
L:1/8
Q:80
C:P/M John MacLellan, Dunoon
S:March
K:HP
|: {Gdc}d3/2e/2{g}f2{gfg}fa|
{f}g{a}e{gfg}f2{Gdc}d2|
{ag}a3/2f/2{Gdc}d2{gdG}d3/2e/2|  !
{g}f{AGAG}A{gfg}f2{gef}e2|
{A}e3/2d/2{gcd}c2{GdG}ca|
{f}g{a}e{Gdc}d2{e}A2|  !
{g}e3/2f/2{gf}g2{afg}gB|
{gcd}c{e}A{Gdc}d2{gdG}d2:| |:
{gdG}d3/2f/2{ag}a2{g}a3/2g/2|  !
{a}f3/2g/2{ag}a2{fg}f2|
{Gdc}d{e}A{GdG}B2{gf}g3/2f/2|
{g}ed{gfg}f2{gef}e2|  !
{A}e3/2d/2{gcd}c2{GdG}ca|
{f}g{a}e{Gdc}d2{e}A2|
{g}e3/2f/2{gf}g2{afg}gB|  !
{gcd}c{e}A{Gdc}d2{gdG}d2:| |:
{gcd}c2{GBG}A2{GAG}A{d}c|
{gef}e{gf}g{fg}f2{Gdc}d2|  !
{gcd}c2{GBG}A2{GAG}A{d}c|
{ag}a3/2g/2{fg}f2{gef}e{AGAG}A|
{Gdc}df{ag}a2{fg}fa|  !
{f}g3/4f/4{g}e3/4d/4{gcd}c2{gBd}B2|
{g}e3/2f/2{gf}g2{afg}gB|
{gcd}c{e}A{Gdc}d2{gdG}d2:|  !
